hackathon/svg-icons/src/components/icons/source/cloning.svg

<svg fill="none" height="256" viewBox="0 0 256 256" width="256" xmlns="http://www.w3.org/2000/svg"><g fill="#000"><path d="m225.853 105.677-19.728-6.5758v-12.1715c0-20.6684-8.21-40.4908-22.825-55.1042-14.614-14.6152-34.436-22.8255-55.105-22.8255-20.668 0-40.4903 8.2103-55.1037 22.8255-14.6152 14.6134-22.8255 34.4353-22.8255 55.1042v12.1715l-19.7278 6.5758c-1.5142.505-2.5363 1.921-2.538 3.518v44.532c.0017 1.597 1.0238 3.013 2.538 3.518l19.7278 6.576v60.414c-3.9777 0-7.6522 2.122-9.6417 5.566-1.988 3.444-1.988 7.689 0 11.133 1.9897 3.444 5.664 5.566 9.6417 5.566h155.8592c3.978 0 7.652-2.122 9.642-5.566 1.988-3.444 1.988-7.689 0-11.133-1.99-3.444-5.664-5.566-9.642-5.566v-60.414l19.728-6.576c1.514-.505 2.536-1.921 2.538-3.518v-44.532c-.002-1.597-1.024-3.013-2.538-3.518zm-4.884 6.194v8.457h-14.844v-13.404zm0 23.3h-14.844v-7.421h14.844zm-163.2813-48.2417c0-18.7006 7.4286-36.634 20.6519-49.8538 13.2219-13.2237 31.1554-20.6519 49.8534-20.6519 18.699 0 36.634 7.4286 49.854 20.6519 13.224 13.2219 20.652 31.1553 20.652 49.8538v79.1767c-8.8 3.87-16.29 10.208-21.56 18.25-5.268 8.041-8.093 17.438-8.127 27.053v12.824h-81.6411v-12.824c-.0347-9.615-2.8594-19.012-8.1276-27.053-5.2699-8.042-12.7596-14.38-21.5599-18.25zm-22.2657 40.8207h14.8438v7.421h-14.8438zm14.8438-20.826v13.404h-14.8438v-8.457zm-14.8438 44.128v-8.457h14.8438v13.404zm22.2657 23.265c6.711 3.604 12.3224 8.955 16.242 15.488s6.0003 14.002 6.0236 21.621v12.809h-22.2656zm152.1483 61.05c0 .984-.391 1.928-1.087 2.624-.695.696-1.64 1.087-2.624 1.087h-155.8592c-2.0493 0-3.7109-1.662-3.7109-3.711s1.6616-3.711 3.7109-3.711h155.8592c.984 0 1.929.391 2.624 1.087.696.695 1.087 1.64 1.087 2.624zm-33.398-11.133v-12.824c.023-7.619 2.104-15.089 6.023-21.621 3.92-6.532 9.531-11.884 16.242-15.489v49.935zm29.687-68.235v-13.404h14.844v8.458z"/><path d="m83.6626 131.462h.2518c.6925 2.957 2.7385 5.414 5.5219 6.63 2.7848 1.215 5.9773 1.046 8.6161-.459 2.6396-1.502 4.4136-4.163 4.7876-7.176l3.017-24.143 3.597-10.7915c.124 1.1348.187 2.2746.188 3.4177v4.6028-.002c-.001 1.092-.057 2.182-.17 3.265l-4.627 20.203c-1.776 7.735-2.204 15.719-1.266 23.598l5.618 47.178c.277 4.903-.384 9.816-1.943 14.473-.628 1.921-.299 4.025.888 5.662 1.186 1.635 3.084 2.605 5.104 2.606h11.341c1.289 0 2.548-.397 3.607-1.135 1.058.738 2.317 1.135 3.606 1.135h11.342c2.028.002 3.933-.972 5.119-2.617s1.511-3.759.87-5.684c-1.536-4.576-2.202-9.4-1.96-14.221l5.637-47.411c.938-7.881.509-15.866-1.265-23.601l-4.624-20.183v-.002c-.113-1.083-.169-2.173-.171-3.265v-4.6023.0017c.002-1.1431.065-2.2829.189-3.4177l3.597 10.7913 3.017 24.143c.374 3.013 2.148 5.674 4.787 7.177 2.64 1.504 5.834 1.673 8.617.458 2.783-1.216 4.829-3.672 5.521-6.63h.249c.984 0 1.928-.391 2.624-1.086.696-.696 1.087-1.641 1.087-2.625v-4.453c-.008-2.876-1.15-5.634-3.176-7.674-.565-.589-.921-1.348-1.01-2.16-2.191-13.142-5.764-26.0163-10.658-38.4078-.18-4.9086-2.006-9.6154-5.185-13.3611-3.178-3.7441-7.523-6.3137-12.338-7.2908-1.405-.275-2.601-1.1879-3.237-2.4701l-.742-1.4844c1.932-2.9422 2.957-6.3866 2.947-9.905.227-4.1782-1.206-8.2769-3.986-11.4047-2.78-3.1261-6.681-5.0295-10.858-5.2945-4.176.265-8.078 2.1685-10.858 5.2945-2.78 3.1278-4.213 7.2264-3.986 11.4047-.003 3.5221 1.029 6.9664 2.969 9.905l-.742 1.4844c-.636 1.2789-1.831 2.1918-3.232 2.4668-4.819.9724-9.172 3.5386-12.3558 7.2861-3.1824 3.7474-5.0129 8.4559-5.1936 13.3692-4.9302 12.4814-8.522 25.4517-10.7172 38.6897-.1193.704-.4556 1.354-.9608 1.856-2.0295 2.047-3.1676 4.814-3.1659 7.696v4.454c0 .984.391 1.928 1.0868 2.624s1.6401 1.087 2.6241 1.087zm47.0754 30.864-2.059 35.02c-.096 1.605-.258 3.204-.485 4.795-.23-1.594-.393-3.191-.486-4.795l-2.059-35.02h-.003c-.507-8.853.351-17.733 2.546-26.325 2.195 8.592 3.053 17.472 2.546 26.325zm-2.546-131.0579c2.2.28 4.205 1.4032 5.59 3.1361 1.385 1.7312 2.043 3.9329 1.832 6.1411.211 2.2083-.447 4.4098-1.832 6.141-1.385 1.7329-3.39 2.8562-5.59 3.1361-2.2-.28-4.204-1.4032-5.59-3.1361-1.385-1.7312-2.042-3.9329-1.832-6.141-.21-2.2084.447-4.4099 1.832-6.1411 1.385-1.7329 3.39-2.8561 5.59-3.1361zm-40.8201 92.0309c.0033-.909.3644-1.779 1.0056-2.423 1.6616-1.682 2.7401-3.85 3.0797-6.19 2.1454-12.834 5.664-25.3999 10.4948-37.4802.179-.4473.269-.9244.264-1.4065.011-3.3232 1.169-6.5406 3.278-9.1098 2.109-2.5695 5.038-4.3323 8.297-4.9917 3.483-.6975 6.477-2.9125 8.164-6.0419 3.886 2.1388 8.598 2.1388 12.486 0 1.686 3.1295 4.678 5.3446 8.164 6.0419 3.255.661 6.182 2.4253 8.29 4.9947 2.105 2.5678 3.262 5.7852 3.273 9.1068 0 .4722.09.9393.264 1.3767 4.866 12.1846 8.401 24.86 10.543 37.804.371 2.23 1.431 4.287 3.031 5.886.645.646 1.006 1.521 1.006 2.434v.742c-2.049 0-3.711 1.661-3.711 3.711v1.506c-.005 1.161-.909 2.117-2.066 2.19-1.158.073-2.173-.766-2.324-1.915l-3.062-24.493c-.028-.241-.083-.482-.162-.712l-7.422-22.2656c-.475-1.4231-1.761-2.4204-3.259-2.5281-1.496-.106-2.91.6991-3.581 2.0427-2.687 5.3942-4.091 11.3364-4.101 17.3634v4.6026-.002c0 1.433.078 2.863.234 4.286.017.142.041.285.075.424l4.675 20.41c1.58 6.907 1.956 14.035 1.113 21.071l-5.64 47.628c-.299 5.314.324 10.642 1.844 15.745h-8.305c1.53-4.979 2.457-10.123 2.764-15.323l2.059-35.017h.002c.783-13.681-1.437-27.368-6.506-40.1-.562-1.411-1.928-2.337-3.448-2.337-1.519 0-2.886.926-3.447 2.337-5.07 12.732-7.29 26.419-6.506 40.1l2.059 35.017h.002c.306 5.2 1.234 10.344 2.763 15.323h-8.305c1.536-5.179 2.154-10.588 1.826-15.979l-5.633-47.407c-.843-7.034-.467-14.161 1.114-21.068l4.675-20.41c.034-.139.059-.28.074-.422.159-1.42.24-2.848.245-4.276v-4.6026.0016c-.001-6.0304-1.399-11.9776-4.082-17.3786-.671-1.3419-2.085-2.1487-3.581-2.0427-1.498.1077-2.784 1.105-3.257 2.5281l-7.4222 22.2652c-.0812.232-.1359.471-.164.713l-3.0616 24.492c-.0712 1.218-1.1166 2.147-2.3342 2.074-1.2177-.071-2.1454-1.116-2.0741-2.334v-1.506c0-.984-.391-1.928-1.0868-2.624s-1.6401-1.087-2.6242-1.087z"/><path d="m120.772 72.0872h14.844v7.4218h-14.844z"/><path d="m120.772 83.22h14.844v7.4218h-14.844z"/><path d="m120.772 94.3528h14.844v7.4222h-14.844z"/></g></svg>

<svg xmlns="http://www.w3.org/2000/svg" width="256" height="256" fill="none" viewBox="0 0 256 256"><path fill="#000" d="M225.853 105.677L206.125 99.1012V86.9297C206.125 66.2613 197.915 46.4389 183.3 31.8255C168.686 17.2103 148.864 9 128.195 9C107.527 9 87.7047 17.2103 73.0913 31.8255C58.4761 46.4389 50.2658 66.2608 50.2658 86.9297V99.1012L30.538 105.677C29.0238 106.182 28.0017 107.598 28 109.195V153.727C28.0017 155.324 29.0238 156.74 30.538 157.245L50.2658 163.821V224.235C46.2881 224.235 42.6136 226.357 40.6241 229.801C38.6361 233.245 38.6361 237.49 40.6241 240.934C42.6138 244.378 46.2881 246.5 50.2658 246.5H206.125C210.103 246.5 213.777 244.378 215.767 240.934C217.755 237.49 217.755 233.245 215.767 229.801C213.777 226.357 210.103 224.235 206.125 224.235V163.821L225.853 157.245C227.367 156.74 228.389 155.324 228.391 153.727V109.195C228.389 107.598 227.367 106.182 225.853 105.677ZM220.969 111.871V120.328H206.125V106.924L220.969 111.871ZM220.969 135.171H206.125V127.75H220.969V135.171ZM57.6877 86.9293C57.6877 68.2287 65.1163 50.2953 78.3396 37.0755C91.5615 23.8518 109.495 16.4236 128.193 16.4236C146.892 16.4236 164.827 23.8522 178.047 37.0755C191.271 50.2974 198.699 68.2308 198.699 86.9293V166.106C189.899 169.976 182.409 176.314 177.139 184.356C171.871 192.397 169.046 201.794 169.012 211.409V224.233H87.3709V211.409C87.3362 201.794 84.5115 192.397 79.2433 184.356C73.9734 176.314 66.4837 169.976 57.6834 166.106L57.6877 86.9293ZM35.422 127.75H50.2658V135.171H35.422V127.75ZM50.2658 106.924V120.328H35.422V111.871L50.2658 106.924ZM35.422 151.052V142.595H50.2658V155.999L35.422 151.052ZM57.6877 174.317C64.3987 177.921 70.0101 183.272 73.9297 189.805C77.8493 196.338 79.93 203.807 79.9533 211.426V224.235H57.6877V174.317ZM209.836 235.367C209.836 236.351 209.445 237.295 208.749 237.991C208.054 238.687 207.109 239.078 206.125 239.078H50.2658C48.2165 239.078 46.5549 237.416 46.5549 235.367C46.5549 233.318 48.2165 231.656 50.2658 231.656H206.125C207.109 231.656 208.054 232.047 208.749 232.743C209.445 233.438 209.836 234.383 209.836 235.367ZM176.438 224.234V211.41C176.461 203.791 178.542 196.321 182.461 189.789C186.381 183.257 191.992 177.905 198.703 174.3V224.235L176.438 224.234ZM206.125 155.999V142.595H220.969V151.053L206.125 155.999Z"/><path fill="#000" d="M83.6626 131.462H83.9144C84.6069 134.419 86.6529 136.876 89.4363 138.092C92.2211 139.307 95.4136 139.138 98.0524 137.633C100.692 136.131 102.466 133.47 102.84 130.457L105.857 106.314L109.454 95.5225C109.578 96.6573 109.641 97.7971 109.642 98.9402V103.543V103.541C109.641 104.633 109.585 105.723 109.472 106.806L104.845 127.009C103.069 134.744 102.641 142.728 103.579 150.607L109.197 197.785C109.474 202.688 108.813 207.601 107.254 212.258C106.626 214.179 106.955 216.283 108.142 217.92C109.328 219.555 111.226 220.525 113.246 220.526H124.587C125.876 220.526 127.135 220.129 128.194 219.391C129.252 220.129 130.511 220.526 131.8 220.526H143.142C145.17 220.528 147.075 219.554 148.261 217.909C149.447 216.264 149.772 214.15 149.131 212.225C147.595 207.649 146.929 202.825 147.171 198.004L152.808 150.593C153.746 142.712 153.317 134.727 151.543 126.992L146.919 106.809V106.807C146.806 105.724 146.75 104.634 146.748 103.542V98.9397V98.9414C146.75 97.7983 146.813 96.6585 146.937 95.5237L150.534 106.315L153.551 130.458C153.925 133.471 155.699 136.132 158.338 137.635C160.978 139.139 164.172 139.308 166.955 138.093C169.738 136.877 171.784 134.421 172.476 131.463H172.725C173.709 131.463 174.653 131.072 175.349 130.377C176.045 129.681 176.436 128.736 176.436 127.752V123.299C176.428 120.423 175.286 117.665 173.26 115.625C172.695 115.036 172.339 114.277 172.25 113.465C170.059 100.323 166.486 87.4487 161.592 75.0572C161.412 70.1486 159.586 65.4418 156.407 61.6961C153.229 57.952 148.884 55.3824 144.069 54.4053C142.664 54.1303 141.468 53.2174 140.832 51.9352L140.09 50.4508C142.022 47.5086 143.047 44.0642 143.037 40.5458C143.264 36.3676 141.831 32.2689 139.051 29.1411C136.271 26.015 132.37 24.1116 128.193 23.8466C124.017 24.1116 120.115 26.0151 117.335 29.1411C114.555 32.2689 113.122 36.3675 113.349 40.5458C113.346 44.0679 114.378 47.5122 116.318 50.4508L115.576 51.9352C114.94 53.2141 113.745 54.127 112.344 54.402C107.525 55.3744 103.172 57.9406 99.9882 61.6881C96.8058 65.4355 94.9753 70.144 94.7946 75.0573C89.8644 87.5387 86.2726 100.509 84.0774 113.747C83.9581 114.451 83.6218 115.101 83.1166 115.603C81.0871 117.65 79.949 120.417 79.9507 123.299V127.753C79.9507 128.737 80.3417 129.681 81.0375 130.377C81.7333 131.073 82.6776 131.464 83.6616 131.464L83.6626 131.462ZM130.738 162.326L128.679 197.346C128.583 198.951 128.421 200.55 128.194 202.141C127.964 200.547 127.801 198.95 127.708 197.346L125.649 162.326H125.646C125.139 153.473 125.997 144.593 128.192 136.001C130.387 144.593 131.245 153.473 130.738 162.326V162.326ZM128.192 31.2681C130.392 31.5481 132.397 32.6713 133.782 34.4042C135.167 36.1354 135.825 38.3371 135.614 40.5453C135.825 42.7536 135.167 44.9551 133.782 46.6863C132.397 48.4192 130.392 49.5425 128.192 49.8224C125.992 49.5424 123.988 48.4192 122.602 46.6863C121.217 44.9551 120.56 42.7534 120.77 40.5453C120.56 38.3369 121.217 36.1354 122.602 34.4042C123.987 32.6713 125.992 31.5481 128.192 31.2681V31.2681ZM87.3719 123.299C87.3752 122.39 87.7363 121.52 88.3775 120.876C90.0391 119.194 91.1176 117.026 91.4572 114.686C93.6026 101.852 97.1212 89.2861 101.952 77.2058C102.131 76.7585 102.221 76.2814 102.216 75.7993C102.227 72.4761 103.385 69.2587 105.494 66.6895C107.603 64.12 110.532 62.3572 113.791 61.6978C117.274 61.0003 120.268 58.7853 121.955 55.6559C125.841 57.7947 130.553 57.7947 134.441 55.6559C136.127 58.7854 139.119 61.0005 142.605 61.6978C145.86 62.3588 148.787 64.1231 150.895 66.6925C153 69.2603 154.157 72.4777 154.168 75.7993C154.168 76.2715 154.258 76.7386 154.432 77.176C159.298 89.3606 162.833 102.036 164.975 114.98C165.346 117.21 166.406 119.267 168.006 120.866C168.651 121.512 169.012 122.387 169.012 123.3V124.042C166.963 124.042 165.301 125.703 165.301 127.753V129.259C165.296 130.42 164.392 131.376 163.235 131.449C162.077 131.522 161.062 130.683 160.911 129.534L157.849 105.041C157.821 104.8 157.766 104.559 157.687 104.329L150.265 82.0634C149.79 80.6403 148.504 79.643 147.006 79.5353C145.51 79.4293 144.096 80.2344 143.425 81.578C140.738 86.9722 139.334 92.9144 139.324 98.9414V103.544V103.542C139.324 104.975 139.402 106.405 139.558 107.828C139.575 107.97 139.599 108.113 139.633 108.252L144.308 128.662C145.888 135.569 146.264 142.697 145.421 149.733L139.781 197.361C139.482 202.675 140.105 208.003 141.625 213.106H133.32C134.85 208.127 135.777 202.983 136.084 197.783L138.143 162.766H138.145C138.928 149.085 136.708 135.398 131.639 122.666C131.077 121.255 129.711 120.329 128.191 120.329C126.672 120.329 125.305 121.255 124.744 122.666C119.674 135.398 117.454 149.085 118.238 162.766L120.297 197.783H120.299C120.605 202.983 121.533 208.127 123.062 213.106H114.757C116.293 207.927 116.911 202.518 116.583 197.127L110.95 149.72C110.107 142.686 110.483 135.559 112.064 128.652L116.739 108.242C116.773 108.103 116.798 107.962 116.813 107.82C116.972 106.4 117.053 104.972 117.058 103.544V98.9414V98.943C117.057 92.9126 115.659 86.9654 112.976 81.5644C112.305 80.2225 110.891 79.4157 109.395 79.5217C107.897 79.6294 106.611 80.6267 106.138 82.0498L98.7158 104.315C98.6346 104.547 98.5799 104.786 98.5518 105.028L95.4902 129.52C95.419 130.738 94.3736 131.667 93.156 131.594C91.9383 131.523 91.0106 130.478 91.0819 129.26V127.754C91.0819 126.77 90.6909 125.826 89.9951 125.13C89.2993 124.434 88.355 124.043 87.3709 124.043L87.3719 123.299Z"/><path fill="#000" d="M120.772 72.0872H135.616V79.509H120.772V72.0872Z"/><path fill="#000" d="M120.772 83.22H135.616V90.6418H120.772V83.22Z"/><path fill="#000" d="M120.772 94.3528H135.616V101.775H120.772V94.3528Z"/></svg>
